X: 19019
T: International Schottische, The
R: barndance
M: 4/4
K: Gmajor
|:A>G|F>GA>B c>de>f|g2 B2 B>dg>f|(3efe A2 A>gf>e|d2 G2 G>BA>G|
F>GA>B c>de>f|g2 B2 B2 g>f|e2 A2 d2 F2|1 A2 G2 G2:|2 A2 G2 G>AB>c||
|:d2 b2 c>a (3aba|B>gf>a g>dB>G|c2 e2 e>cA>F|G2 g2 g>dB>c|
d2 b2 c>a (3aba|B>gf>a g>dB>G|c2 e2 e>gf>e|1 d>cB>A G2 (3ABc:|2 d>cB>A G2||

